!!!COM: Hugo Wolf
!!!CNT: Deutscher
!!!TXO: Deutsche 
!!!OTL: Morgenstimmung
!!!OPR: Drei Gedichte von Robert Reinick
!!!ONM: No. 2
!!!ODT: 1896/
!!!LYR: Robert Reinick
!!!ENC: Brian Bice
!!!YOR: 65 Songs for voice and piano, International Music Company, 1960
!!NB: Vocal melody and text only encoded.
**kern	**silbe
*clefG2	*
*k[f#c#g#d#]	*
*M6/8	*
=2	=2
8r	.
{[4f#	{Bald
8f#]	|
8e	ist
8d#	der
=3	=3
4d#	Nacht
8c#	ein
[4.a	End
=4	=4
4a]	|
8B#	ge-
4.B#}	-macht.}
=5	=5
4r	.
8r	.
{[4.f#	{schon
=6	=6
8f#]	|
8f#	fu2hl
8f#	ich
[4.f#	Mor-
=7	=7
4f#]	|
8b#	-gen-
4b#	-lu2f-
8dd#	-te
=8	=8
(4dd#	we-
8f#)	|
4f#}	-hen.}
8r	.
=10	=10
*k[b-e-a-]	*
4r	.
{8cc-	{Der
4.cc-	Herr,
=11	=11
4r	.
8b-	der
4.b-	spricht:
=12	=12
8r	.
8b-	"es
[8dd-	wer-
4dd-]	|
8f-	-de
=13	=13
[2.ee-	Licht!"
=14	=14
4.ee-_	|
8ee-]}	|}
8r	.
8r	.
=21	=21
4r	.
8r	.
{[4.g	{Da-
=22	=22
4g]	|
8g	-muss,
4r	.
8g	was
=23	=23
*k[f#c#g#d#]	*
[4.g#	dun-
4g#]	|
8a	-kel
=24	=24
4.e	ist,
8r	.
8d#	ver-
8c#	|
=25	=25
(4f#	-ge-
8b#)	|
4.b#}	-hen.}
=29	=29
4r	.
{8b	{Vom
[4.ee	Him-
=30	=30
4.ee]	|
4.dd#	-mels-
=31	=31
[4.cc#	-zelt
4cc#]	|
8cc#	durch
=32	=32
(4.cc#	al-
8ee	|
8dd#)	|
8cc#}	-le}
=33	=33
{4ee	{Welt
8b	de
8cc#	En-
8dd#	|
8cc#	-gel
=34	=34
4ee	freu-
8b	-de-
8ggn	-jauch-
8ff#	|
8ee	-send
=35	=35
(4ee	flie-
8b)	|
8b}	-gen;}
8r	.
8r	.
=39	=39
*k[b-e-a-d-]	*
4r	.
{8b-	{der
([4.ee-	Son-
=40	=40
8ee-]	|
8cc)	|
8b-	-ne
8cc	Strahl
8dd-	|
8ee-	durch-
=41	=41
*k[]	*
[4.ee	flammt
4ee]	|
8g	das
=42	=42
[2.ee	All.
=43	=43
*k[f#c#g#d#]	*
8ee]}	|}
8r	.
8r	.
4r	.
8r	.
=45	=45
4r	.
8r	.
{4.dd#	{Herr,
=46	=46
8r	.
8cc#	lass
8ee	uns
4ee	ka2mp-
8cc#	-fen,
=47	=47
8r	.
8ee	lass
8gg#	uns
[4.gg#	sie-
=48	=48
2.gg#_	|
=49	=49
2.gg#_	|
=50	=50
4.gg#_	|
4gg#]	|
8e}	-gen!}
*-	*-
